X: 423
T: Manzuizui baiyaya duigege xiao
%%abc-version 2.0
%%abcx-abcm2ps-target-version 5.9.1 (29 Sep 2008)
%%abc-creator hum2abc beta
%%abcx-conversion-date 2013/10/02 07:52:30
%%abc-edited-by Helmut Schaffrath
%%humdrum-veritas 3208379680
%%humdrum-veritas-data 586101785
%%continueall 1
%%barnumbers 0
L: 1/16
M: 2/4
K: Eb
B B B G2< e2 e [I:setbarnb 1]| 
f2B4G2 | 
c2 E2 B c e f | 
B8 | 
B B B G2< e2 e | 
f2B4G2 | 
c2 E2 B c e2 | 
E8 |]  



